X: 7
T: The Maid I Never Forgot
R: reel
M: 4/4
L: 1/8
K: Emin
|:"Emin"EB,EF GFGA|~B2 eBdB Ad|BGEF GAB^c|"Bmin"~d2 eB dBAF|
"Emin"EB,EF GFGA|~B2 eBdB Ad|BGEF GAB^c|"Bmin"dBAd "Em"BE{G}E2 :|
|:BABd edef |gfed edBA|BGEF GAB^c|"D" ~d2AG FAGF|
"Em"E2BEdEBE| BeM{f}e2 "D"(3dcB Ad|"Em"BGEF GAB^c|"Bm"dBAd "Em"BEE2:| 

